modules/feathericon/icons/bookmark.svg

<svg width="10" height="14" xmlns="http://www.w3.org/2000/svg"><path d="M0 1s0-1 1-1h8c1 0 1 1 1 1v13l-5-3-5 3V1zm7 1h1v2H7V2zm0 3h1v2H7V5z" fill="#000" fill-rule="evenodd"/></svg>

<?xml version="1.0" encoding="UTF-8"?>
<svg width="10px" height="14px" viewBox="0 0 10 14" version="1.1" xmlns="http://www.w3.org/2000/svg" xmlns:xlink="http://www.w3.org/1999/xlink">
    <!-- Generator: sketchtool 48.1 (47250) - http://www.bohemiancoding.com/sketch -->
    <title>bookmark</title>
    <desc>Created with sketchtool.</desc>
    <defs></defs>
    <g id="web-app" stroke="none" stroke-width="1" fill="none" fill-rule="evenodd">
        <g id="bookmark" fill="#000000">
            <path d="M0,1 C0,1 -6.10622664e-16,-4.17457457e-11 1,0 C1,2.28815716e-10 9,0 9,0 C10,0 10,1 10,1 L10,14 L5,11 L0,14 L0,1 Z M7,2 L8,2 L8,4 L7,4 L7,2 Z M7,5 L8,5 L8,7 L7,7 L7,5 Z" id="Shape"></path>
        </g>
    </g>
</svg>
